!!!OTL: Osterlied des 15. Jahrhunderts. / b. Andere Lesart. / (Ein Gesang von der ausserstehung, auf ein alte gewonliche Melody.)
!!!ARE: Europa, Mitteleuropa, Deutschland
!!!SCT: A0553B
!!!TXL: @@DE, (@@LAT)
!!!YEM: Copyright 1995, estate of Helmut Schaffrath.
**kern	**text
*M4/1	*
*met(c|)	*
*clefC4	*
*k[]	*
*D:dor	*
!LO:TX:a:t=dor.	!
1ryy	.
2ryy	.
{2D	Er-
=1	=1
1D	-ſtan-
1A	-den
1E	iſt
1G	vns
=2	=2
1F	Jhe-
1E	-ſus
1D	Chriſt,
2r}	.
{2D	die
=3	=3
1A	gnad
1B	ietʒ
1c	wie-
1B	-der-
=4	=4
1A	-kommen
1G	.
1A	iſt,
2r}	.
{2A	Die
=5	=5
1d	gantʒ
1B	durch
1c	A-
1A	-dam
=6	=6
1G	war
1F	verlorn,
1E	.
2r}	.
{2E	Der
=7	=7
1D	vns
1A	hat
1E	bracht
1G	in
=8	=8
1F	Got-
1E	-tes
0D}	ʒorn.
=9||	=9||
{1C	Al-
1D	-le-
1E	-lu-
1D	-ja,
=10	=10
1G	Ki-
1A	-ri-
*lig	*
2F	-e-
2D	.
*Xlig	*
1E	-lei-
=11	=11
0D/ll}	-ſon.
==	==
!!!GTL: Geistliche Volkslieder
!!!AGN: Romanze, Ballade, Lied, religioeses Lied
!!  Triller 1555
!!!ONB: ESAC (Essen Associative Code) Database: ALTDEU
!!!AMT: simple quadruple
!!!AIN: vox
!!!EED: Helmut Schaffrath
!!!EEV: 1.0
!!!RDF**kern: l = terminal long
!!!AMD: Dorian
!!!URL-scan: https://rosdok.uni-rostock.de/mcrviewer/recordIdentifier/rosdok_ppn738218359/iview2/phys_0733.iview2?x=-1583.232250273661&y=1440.6689207134768&scale=0.2846028696088022&rotation=0&layout=singlePageLayout&logicalDiv=log_0021
!!!ENC: Anna Maria Matuszewska
!!!EEV: 2024/20/03
*-	*-
